icons/imagegif.svg

<svg width="16" height="16" viewBox="0 0 16 16" fill="none" xmlns="http://www.w3.org/2000/svg">
<mask id="path-1-inside-1_1346_130" fill="white">
<path fill-rule="evenodd" clip-rule="evenodd" d="M6.00359 2H9.11C9.23874 1.99851 9.36642 2.02348 9.48511 2.07337C9.6038 2.12325 9.71098 2.19699 9.8 2.29C10.49 3 12 4.53 12.71 5.21C12.8947 5.39626 12.9989 5.64766 13 5.91V13C13 13.2652 12.8946 13.5196 12.7071 13.7071C12.5196 13.8946 12.2652 14 12 14H4C3.73478 14 3.48043 13.8946 3.29289 13.7071C3.10536 13.5196 3 13.2652 3 13V3C3 2.73479 3.10536 2.48043 3.29289 2.2929C3.48043 2.10536 3.73478 2 4 2H5.99641L5.99637 2H6.00363L6.00359 2ZM10 8C10.5464 8 11.0587 8.14609 11.5 8.40135V9.67709C11.1335 9.26188 10.5973 9 10 9C8.89543 9 8 9.89543 8 11C8 11.5973 8.26188 12.1335 8.67709 12.5H7.40135C7.14609 12.0587 7 11.5464 7 11C7 9.34315 8.34315 8 10 8ZM11.3229 12.5C11.3856 12.4447 11.4447 12.3856 11.5 12.3229V12.5H11.3229ZM6 8C5.45357 8 4.94126 7.85391 4.5 7.59865V3.5H8.59865C8.85391 3.94126 9 4.45357 9 5C9 6.65685 7.65685 8 6 8Z"/>
</mask>
<path fill-rule="evenodd" clip-rule="evenodd" d="M6.00359 2H9.11C9.23874 1.99851 9.36642 2.02348 9.48511 2.07337C9.6038 2.12325 9.71098 2.19699 9.8 2.29C10.49 3 12 4.53 12.71 5.21C12.8947 5.39626 12.9989 5.64766 13 5.91V13C13 13.2652 12.8946 13.5196 12.7071 13.7071C12.5196 13.8946 12.2652 14 12 14H4C3.73478 14 3.48043 13.8946 3.29289 13.7071C3.10536 13.5196 3 13.2652 3 13V3C3 2.73479 3.10536 2.48043 3.29289 2.2929C3.48043 2.10536 3.73478 2 4 2H5.99641L5.99637 2H6.00363L6.00359 2ZM10 8C10.5464 8 11.0587 8.14609 11.5 8.40135V9.67709C11.1335 9.26188 10.5973 9 10 9C8.89543 9 8 9.89543 8 11C8 11.5973 8.26188 12.1335 8.67709 12.5H7.40135C7.14609 12.0587 7 11.5464 7 11C7 9.34315 8.34315 8 10 8ZM11.3229 12.5C11.3856 12.4447 11.4447 12.3856 11.5 12.3229V12.5H11.3229ZM6 8C5.45357 8 4.94126 7.85391 4.5 7.59865V3.5H8.59865C8.85391 3.94126 9 4.45357 9 5C9 6.65685 7.65685 8 6 8Z" fill="#FF505A"/>
<path d="M9.11 2V3.5H9.11869L9.12739 3.4999L9.11 2ZM6.00359 2V0.500002L6.0027 3.5L6.00359 2ZM9.48511 2.07337L8.90392 3.4562L9.48511 2.07337ZM9.8 2.29L8.71629 3.32717L8.7243 3.3354L9.8 2.29ZM12.71 5.21L13.775 4.15369L13.7614 4.14002L13.7475 4.1267L12.71 5.21ZM13 5.91L14.5 5.91L14.5 5.90369L13 5.91ZM3.29289 13.7071L4.35355 12.6464L4.35355 12.6464L3.29289 13.7071ZM3.29289 2.2929L2.23223 1.23224L2.23223 1.23224L3.29289 2.2929ZM5.99641 2L5.9973 3.5L5.99641 0.500002V2ZM5.99637 2L5.99548 0.500002L5.99637 3.5V2ZM6.00363 2V3.5L6.00452 0.500002L6.00363 2ZM11.5 8.40135H13V7.53616L12.2511 7.10294L11.5 8.40135ZM11.5 9.67709L10.3754 10.6697L13 13.6434V9.67709H11.5ZM8.67709 12.5V14H12.6434L9.66969 11.3754L8.67709 12.5ZM7.40135 12.5L6.10294 13.2511L6.53616 14H7.40135V12.5ZM11.5 12.3229H13V8.35663L10.3754 11.3303L11.5 12.3229ZM11.3229 12.5L10.3303 11.3754L7.35663 14H11.3229V12.5ZM11.5 12.5V14H13V12.5H11.5ZM4.5 7.59865H3V8.46384L3.74891 8.89706L4.5 7.59865ZM4.5 3.5V2H3V3.5H4.5ZM8.59865 3.5L9.89706 2.74891L9.46384 2H8.59865V3.5ZM9.11 0.500002H6.00359V3.5H9.11V0.500002ZM10.0663 0.690535C9.7582 0.561046 9.42679 0.496229 9.09261 0.500103L9.12739 3.4999C9.05069 3.50079 8.97463 3.48591 8.90392 3.4562L10.0663 0.690535ZM10.8837 1.25287C10.6526 1.01143 10.3744 0.820025 10.0663 0.690535L8.90392 3.4562C8.83321 3.42648 8.76936 3.38255 8.71632 3.32714L10.8837 1.25287ZM13.7475 4.1267C13.0586 3.46693 11.5649 1.9538 10.8757 1.2446L8.7243 3.3354C9.41507 4.0462 10.9414 5.59308 11.6725 6.2933L13.7475 4.1267ZM14.5 5.90369C14.4972 5.24783 14.2368 4.61934 13.775 4.15369L11.645 6.26632C11.5526 6.17319 11.5006 6.04749 11.5 5.91632L14.5 5.90369ZM14.5 13V5.91H11.5V13H14.5ZM13.7678 14.7678C14.2366 14.2989 14.5 13.663 14.5 13H11.5C11.5 12.8674 11.5527 12.7402 11.6464 12.6464L13.7678 14.7678ZM12 15.5C12.663 15.5 13.2989 15.2366 13.7678 14.7678L11.6464 12.6464C11.7402 12.5527 11.8674 12.5 12 12.5V15.5ZM4 15.5H12V12.5H4V15.5ZM2.23223 14.7678C2.70107 15.2366 3.33696 15.5 4 15.5V12.5C4.13261 12.5 4.25979 12.5527 4.35355 12.6464L2.23223 14.7678ZM1.5 13C1.5 13.663 1.76339 14.2989 2.23223 14.7678L4.35355 12.6464C4.44732 12.7402 4.5 12.8674 4.5 13H1.5ZM1.5 3V13H4.5V3H1.5ZM2.23223 1.23224C1.76339 1.70108 1.5 2.33696 1.5 3H4.5C4.5 3.13261 4.44732 3.25979 4.35355 3.35356L2.23223 1.23224ZM4 0.500002C3.33696 0.500002 2.70107 0.763394 2.23223 1.23224L4.35355 3.35356C4.25978 3.44732 4.13261 3.5 4 3.5V0.500002ZM5.99641 0.500002H4V3.5H5.99641V0.500002ZM5.99552 0.500002L5.99548 0.500002L5.99726 3.5L5.9973 3.5L5.99552 0.500002ZM5.99637 3.5H6.00363V0.500002H5.99637V3.5ZM6.00452 0.500002L6.00448 0.500002L6.0027 3.5L6.00274 3.5L6.00452 0.500002ZM12.2511 7.10294C11.5877 6.71917 10.8172 6.5 10 6.5V9.5C10.2757 9.5 10.5298 9.57301 10.7489 9.69976L12.2511 7.10294ZM13 9.67709V8.40135H10V9.67709H13ZM10 10.5C10.1491 10.5 10.2816 10.5634 10.3754 10.6697L12.6246 8.68449C11.9855 7.96036 11.0456 7.5 10 7.5V10.5ZM9.5 11C9.5 10.7239 9.72386 10.5 10 10.5V7.5C8.067 7.5 6.5 9.067 6.5 11H9.5ZM9.66969 11.3754C9.5634 11.2816 9.5 11.1491 9.5 11H6.5C6.5 12.0456 6.96036 12.9855 7.68449 13.6246L9.66969 11.3754ZM7.40135 14H8.67709V11H7.40135V14ZM5.5 11C5.5 11.8172 5.71917 12.5877 6.10294 13.2511L8.69976 11.7489C8.57301 11.5298 8.5 11.2757 8.5 11H5.5ZM10 6.5C7.51472 6.5 5.5 8.51472 5.5 11H8.5C8.5 10.1716 9.17157 9.5 10 9.5V6.5ZM10.3754 11.3303C10.3613 11.3463 10.3463 11.3613 10.3303 11.3754L12.3155 13.6246C12.4249 13.5281 12.5281 13.4249 12.6246 13.3155L10.3754 11.3303ZM13 12.5V12.3229H10V12.5H13ZM11.3229 14H11.5V11H11.3229V14ZM3.74891 8.89706C4.41233 9.28083 5.18285 9.5 6 9.5V6.5C5.72429 6.5 5.47019 6.42699 5.25109 6.30024L3.74891 8.89706ZM3 3.5V7.59865H6V3.5H3ZM8.59865 2H4.5V5H8.59865V2ZM10.5 5C10.5 4.18285 10.2808 3.41233 9.89706 2.74891L7.30025 4.25109C7.42699 4.47019 7.5 4.72429 7.5 5H10.5ZM6 9.5C8.48528 9.5 10.5 7.48528 10.5 5H7.5C7.5 5.82843 6.82843 6.5 6 6.5V9.5Z" fill="#FF505A" mask="url(#path-1-inside-1_1346_130)"/>
<path d="M10 13.5L12 10.5V13L10 13.5Z" fill="#FF505A"/>
</svg>

<svg xmlns="http://www.w3.org/2000/svg" width="16" height="16" fill="none"><mask id="a" fill="#fff"><path fill-rule="evenodd" d="M6.004 2H9.11a.94.94 0 0 1 .69.29c.69.71 2.2 2.24 2.91 2.92a1 1 0 0 1 .29.7V13a1 1 0 0 1-1 1H4a1 1 0 0 1-1-1V3a1 1 0 0 1 1-1h2.004ZM10 8c.546 0 1.059.146 1.5.401v1.276A2 2 0 1 0 8.677 12.5H7.401A3 3 0 0 1 10 8Zm1.323 4.5a2 2 0 0 0 .177-.177v.177h-.177ZM6 8a2.986 2.986 0 0 1-1.5-.401V3.5h4.099A3 3 0 0 1 6 8Z" clip-rule="evenodd"/></mask><path fill="#FF505A" fill-rule="evenodd" d="M6.004 2H9.11a.94.94 0 0 1 .69.29c.69.71 2.2 2.24 2.91 2.92a1 1 0 0 1 .29.7V13a1 1 0 0 1-1 1H4a1 1 0 0 1-1-1V3a1 1 0 0 1 1-1h2.004ZM10 8c.546 0 1.059.146 1.5.401v1.276A2 2 0 1 0 8.677 12.5H7.401A3 3 0 0 1 10 8Zm1.323 4.5a2 2 0 0 0 .177-.177v.177h-.177ZM6 8a2.986 2.986 0 0 1-1.5-.401V3.5h4.099A3 3 0 0 1 6 8Z" clip-rule="evenodd"/><path fill="#FF505A" d="M9.11 2v1.5h.017L9.11 2ZM6.004 2V.5l-.001 3V2Zm3.481.073-.581 1.383.581-1.383Zm.315.217L8.716 3.327l.008.008L9.8 2.29Zm2.91 2.92 1.065-1.056-.014-.014-.013-.013L12.71 5.21Zm.29.7h1.5v-.006L13 5.91Zm-9.707 7.797 1.06-1.06-1.06 1.06Zm0-11.414-1.06-1.06 1.06 1.06ZM5.996 2l.001 1.5v-3V2Zm0 0V.5v3V2Zm.008 0v1.5-3V2ZM11.5 8.401H13v-.865l-.749-.433L11.5 8.4Zm0 1.276-1.125.993L13 13.643V9.677h-1.5ZM8.677 12.5V14h3.966L9.67 11.375 8.677 12.5Zm-1.276 0-1.298.751.433.749h.865v-1.5Zm4.099-.177H13V8.357l-2.625 2.973 1.125.993Zm-.177.177-.993-1.125L7.357 14h3.966v-1.5Zm.177 0V14H13v-1.5h-1.5Zm-7-4.901H3v.865l.749.433L4.5 7.6Zm0-4.099V2H3v1.5h1.5Zm4.099 0 1.298-.751L9.464 2h-.865v1.5Zm.511-3H6.004v3H9.11v-3Zm.956.19A2.44 2.44 0 0 0 9.093.5l.034 3a.56.56 0 0 1-.223-.044L10.066.691Zm.818.563a2.44 2.44 0 0 0-.818-.562L8.904 3.456a.56.56 0 0 1-.188-.129l2.168-2.074Zm2.864 2.874c-.69-.66-2.183-2.173-2.872-2.882l-2.152 2.09c.691.711 2.217 2.258 2.948 2.958l2.075-2.166Zm.752 1.777a2.5 2.5 0 0 0-.725-1.75l-2.13 2.112a.5.5 0 0 1-.145-.35l3-.012Zm0 7.096V5.91h-3V13h3Zm-.732 1.768A2.5 2.5 0 0 0 14.5 13h-3a.5.5 0 0 1 .146-.354l2.122 2.122ZM12 15.5a2.5 2.5 0 0 0 1.768-.732l-2.122-2.122A.5.5 0 0 1 12 12.5v3Zm-8 0h8v-3H4v3Zm-1.768-.732A2.5 2.5 0 0 0 4 15.5v-3a.5.5 0 0 1 .354.146l-2.122 2.122ZM1.5 13a2.5 2.5 0 0 0 .732 1.768l2.122-2.122A.5.5 0 0 1 4.5 13h-3Zm0-10v10h3V3h-3Zm.732-1.768A2.5 2.5 0 0 0 1.5 3h3a.5.5 0 0 1-.146.354L2.232 1.232ZM4 .5a2.5 2.5 0 0 0-1.768.732l2.122 2.122A.5.5 0 0 1 4 3.5v-3Zm1.996 0H4v3h1.996v-3Zm0 0 .001 3-.001-3Zm0 3h.008v-3h-.008v3Zm.009-3-.002 3 .002-3Zm6.246 6.603A4.486 4.486 0 0 0 10 6.5v3c.276 0 .53.073.749.2l1.502-2.597ZM13 9.677V8.401h-3v1.276h3Zm-3 .823c.15 0 .282.063.375.17l2.25-1.986A3.495 3.495 0 0 0 10 7.5v3Zm-.5.5a.5.5 0 0 1 .5-.5v-3A3.5 3.5 0 0 0 6.5 11h3Zm.17.375A.495.495 0 0 1 9.5 11h-3c0 1.046.46 1.986 1.184 2.625l1.986-2.25ZM7.4 14h1.276v-3H7.401v3ZM5.5 11c0 .817.22 1.588.603 2.251L8.7 11.75c-.127-.22-.2-.473-.2-.749h-3ZM10 6.5A4.5 4.5 0 0 0 5.5 11h3A1.5 1.5 0 0 1 10 9.5v-3Zm.375 4.83a.505.505 0 0 1-.045.045l1.986 2.25c.109-.097.212-.2.309-.31l-2.25-1.985ZM13 12.5v-.177h-3v.177h3ZM11.323 14h.177v-3h-.177v3ZM3.749 8.897A4.486 4.486 0 0 0 6 9.5v-3c-.276 0-.53-.073-.749-.2L3.75 8.897ZM3 3.5v4.099h3V3.5H3ZM8.599 2H4.5v3h4.099V2ZM10.5 5c0-.817-.22-1.588-.603-2.251L7.3 4.25c.127.22.2.473.2.749h3ZM6 9.5A4.5 4.5 0 0 0 10.5 5h-3A1.5 1.5 0 0 1 6 6.5v3Z" mask="url(#a)"/><path fill="#FF505A" d="m10 13.5 2-3V13l-2 .5Z"/></svg>
